src/rounded/icons/fi-rr-form.svg

<svg id="Layer_1" height="512" viewBox="0 0 24 24" width="512" xmlns="http://www.w3.org/2000/svg" data-name="Layer 1"><path d="m10 10a3 3 0 0 0 0 6h4a3 3 0 0 0 0-6zm5 3a1 1 0 0 1 -1 1h-4a1 1 0 0 1 0-2h4a1 1 0 0 1 1 1zm2 6a1 1 0 0 1 -1 1h-8a1 1 0 0 1 0-2h8a1 1 0 0 1 1 1zm2.536-15.879-1.658-1.656a4.968 4.968 0 0 0 -3.535-1.465h-6.343a5.006 5.006 0 0 0 -5 5v14a5.006 5.006 0 0 0 5 5h8a5.006 5.006 0 0 0 5-5v-12.343a4.968 4.968 0 0 0 -1.464-3.536zm-1.414 1.414a3.1 3.1 0 0 1 .378.465h-2.5v-2.5a2.932 2.932 0 0 1 .464.377zm.878 14.465a3 3 0 0 1 -3 3h-8a3 3 0 0 1 -3-3v-14a3 3 0 0 1 3-3h6v3a2 2 0 0 0 2 2h3z"/></svg>

<svg id="Layer_1" data-name="Layer 1" xmlns="http://www.w3.org/2000/svg" viewBox="0 0 24 24"><path d="M10,10a3,3,0,0,0,0,6h4a3,3,0,0,0,0-6Zm5,3a1,1,0,0,1-1,1H10a1,1,0,0,1,0-2h4A1,1,0,0,1,15,13Zm2,6a1,1,0,0,1-1,1H8a1,1,0,0,1,0-2h8A1,1,0,0,1,17,19ZM19.536,3.121,17.878,1.465A4.968,4.968,0,0,0,14.343,0H8A5.006,5.006,0,0,0,3,5V19a5.006,5.006,0,0,0,5,5h8a5.006,5.006,0,0,0,5-5V6.657A4.968,4.968,0,0,0,19.536,3.121ZM18.122,4.535A3.1,3.1,0,0,1,18.5,5H16V2.5a2.932,2.932,0,0,1,.464.377ZM19,19a3,3,0,0,1-3,3H8a3,3,0,0,1-3-3V5A3,3,0,0,1,8,2h6V5a2,2,0,0,0,2,2h3Z"/></svg>
